<?xml version="1.0" encoding="UTF-8"?>
<map version="1.10" tiledversion="1.11.2" orientation="orthogonal" renderorder="right-down" width="60" height="60" tilewidth="64" tileheight="64" infinite="0" nextlayerid="5" nextobjectid="1">
 <editorsettings>
  <export format="lua"/>
 </editorsettings>
 <tileset firstgid="1" name="Grass Tiles" tilewidth="64" tileheight="64" tilecount="6" columns="2">
  <image source="grassTiles.png" width="128" height="192"/>
 </tileset>
 <tileset firstgid="7" name="River Tiles" tilewidth="64" tileheight="64" tilecount="4" columns="2">
  <image source="RiverTiles.png" width="128" height="128"/>
 </tileset>
 <tileset firstgid="11" name="chees" tilewidth="64" tileheight="64" tilecount="12" columns="4">
  <image source="pixil-frame-0 (5).png" width="256" height="192"/>
 </tileset>
 <tileset firstgid="23" name="pixil-frame-0 (15)" tilewidth="64" tileheight="64" tilecount="12" columns="4">
  <image source="pixil-frame-0 (15).png" width="256" height="192"/>
 </tileset>
 <layer id="1" name="Слой тайлов 1" width="60" height="60" offsetx="0.00255842" offsety="0.00210779">
  <data encoding="csv">
3,5,3,5,5,2,4,1,2,3,2,4,5,1,4,4,1,3,2,5,4,5,1,2,1,3,4,4,4,2,4,3,1,5,5,2,1,4,1,3,1,2,1,2,3,3,5,5,3,5,5,1,5,5,3,1,2,5,2,4,
5,2,2,1,4,3,1,4,3,4,4,2,2,3,2,5,3,1,3,5,5,4,5,3,4,1,3,2,1,4,1,2,1,3,3,3,1,5,2,5,4,4,3,1,4,3,4,3,1,3,3,5,4,5,2,4,4,1,4,5,
5,3,3,5,5,1,1,1,1,5,5,3,4,1,2,1,4,5,1,2,5,4,2,1,2,1,1,1,5,4,1,1,2,2,5,4,5,1,4,4,4,3,2,5,3,5,2,1,4,3,1,2,1,2,3,2,2,3,2,1,
3,4,2,5,2,3,2,4,5,1,4,5,5,2,4,3,3,1,3,5,2,1,5,5,3,3,1,4,5,3,2,2,4,5,1,1,5,5,1,2,4,3,5,4,5,3,3,2,4,5,5,4,3,1,2,1,3,3,2,3,
1,3,5,1,2,4,2,4,2,2,3,3,4,4,4,1,2,4,4,5,4,3,2,3,4,1,2,5,1,4,4,5,3,4,5,2,5,3,5,3,3,3,3,5,3,3,2,4,3,3,4,4,4,5,2,3,5,3,1,1,
1,1,5,3,2,3,5,5,2,3,2,2,3,5,3,3,1,3,2,2,1,4,4,1,3,2,1,5,2,2,5,4,4,1,1,4,3,3,5,1,5,4,5,1,4,2,1,3,3,4,2,1,4,2,1,3,5,4,3,1,
1,4,2,3,2,5,5,5,5,3,4,4,2,3,2,2,2,5,2,3,1,3,4,5,3,3,4,2,3,2,5,3,4,3,4,2,5,5,2,1,4,3,3,4,1,2,5,2,2,2,3,2,3,1,2,4,5,3,1,5,
5,3,2,3,1,3,2,2,2,3,4,1,1,4,1,3,2,5,3,4,3,5,5,4,2,5,4,1,2,1,3,5,1,5,5,1,2,2,2,2,5,2,3,4,1,2,2,2,5,5,5,5,1,5,2,5,3,4,2,5,
2,4,3,5,3,3,5,2,3,3,4,2,1,3,5,1,3,1,1,2,3,4,2,5,5,5,3,1,3,2,2,1,4,4,4,3,5,3,4,5,5,5,3,4,1,2,4,3,4,3,1,5,4,5,4,2,4,1,5,1,
1,3,2,4,2,2,1,4,4,4,1,1,4,5,4,4,3,2,1,3,4,2,4,2,3,4,5,4,1,3,2,2,4,4,5,1,5,5,4,1,3,3,2,2,3,1,3,3,3,5,4,5,5,3,4,1,3,2,3,4,
1,2,1,5,4,4,4,5,2,4,3,4,5,5,2,4,4,3,2,2,2,2,1,4,4,4,2,5,3,5,5,1,5,2,5,5,4,3,3,4,2,1,2,5,5,3,1,3,3,5,2,1,5,5,1,4,3,5,5,3,
2,1,4,2,4,1,5,1,4,3,4,4,4,1,4,1,1,4,1,5,3,4,2,3,3,4,3,3,3,5,5,1,3,1,2,1,3,1,1,5,3,2,1,4,3,2,5,4,2,5,4,4,2,5,1,4,2,5,5,2,
4,4,3,3,5,1,5,3,1,2,4,5,3,4,5,4,4,2,5,2,1,5,1,1,5,3,4,1,5,1,5,3,2,3,5,5,5,5,2,5,3,3,5,3,3,2,5,3,4,2,5,2,1,4,4,2,1,5,4,2,
3,1,2,1,1,3,3,4,3,1,5,4,3,1,5,2,3,4,3,5,2,2,3,4,3,4,3,3,2,5,3,1,1,5,1,2,1,2,2,4,5,2,3,1,5,3,1,5,5,3,1,3,1,3,2,5,1,4,5,3,
5,2,3,3,5,5,4,4,1,2,4,1,4,4,3,3,3,4,5,3,2,4,3,2,1,2,1,5,1,4,5,2,5,5,5,3,2,5,5,5,4,1,5,4,2,3,3,3,4,2,4,5,4,1,1,3,5,4,5,2,
2,2,5,3,4,3,1,1,5,4,2,3,2,4,5,2,3,2,2,3,4,5,3,4,5,2,3,4,2,2,2,4,1,2,1,4,4,5,4,4,3,1,3,5,5,4,3,1,2,4,2,2,3,1,3,4,5,2,3,2,
1,4,1,4,5,1,1,3,4,2,1,1,1,1,5,4,1,4,4,3,4,3,2,2,2,1,4,3,2,2,5,5,5,4,1,2,5,1,2,5,1,2,1,5,5,3,2,5,4,1,5,4,4,1,3,4,5,3,4,4,
2,3,1,1,4,3,5,5,5,1,4,5,1,3,5,4,1,2,1,2,5,4,2,5,1,4,3,5,2,4,3,5,4,3,2,2,4,2,1,5,5,1,3,5,5,2,2,3,4,1,2,4,2,5,4,1,4,4,4,4,
3,4,4,4,3,3,4,4,4,2,2,3,3,1,1,2,5,4,3,4,1,1,1,3,1,5,2,5,5,3,2,3,4,2,2,1,2,5,4,4,4,4,1,3,2,4,2,4,3,2,1,3,2,1,4,1,2,4,2,5,
1,1,4,2,3,3,2,2,4,2,2,3,4,4,2,2,2,4,5,4,5,3,1,1,4,5,3,3,1,3,2,3,1,1,5,4,3,3,5,5,2,4,5,3,5,5,4,1,5,2,3,2,1,5,2,5,3,1,4,1,
1,1,2,1,4,3,5,5,1,4,3,2,4,5,2,2,2,1,2,3,3,4,5,2,3,3,5,3,2,2,5,5,4,5,2,3,4,4,3,1,3,4,3,2,2,4,5,4,4,5,2,3,5,5,5,5,4,5,5,4,
3,5,2,1,3,5,1,1,5,3,4,4,1,2,3,1,1,5,4,5,4,5,3,4,5,3,2,1,3,4,4,3,4,5,4,3,4,4,3,1,2,3,3,2,3,4,4,4,1,2,1,2,4,3,3,3,1,2,5,4,
5,2,5,4,4,2,2,4,4,5,5,1,5,3,4,3,4,2,4,3,2,4,5,5,1,4,1,1,3,3,2,3,5,5,4,2,1,2,5,2,3,3,3,3,1,4,3,4,2,5,5,3,2,4,2,4,3,3,5,5,
4,4,3,4,3,5,2,4,2,3,1,2,1,3,1,3,3,5,4,5,3,2,5,5,2,4,5,2,4,3,4,3,5,1,5,5,4,5,4,4,5,1,2,5,3,5,2,2,2,3,1,1,2,1,2,4,4,3,3,3,
1,2,4,4,1,1,1,1,2,1,3,4,3,5,4,2,3,5,1,3,1,1,3,3,1,3,4,2,4,2,4,2,4,2,4,5,4,2,3,5,1,1,4,2,1,1,3,5,2,3,2,5,2,1,2,4,5,2,1,3,
3,5,1,5,4,3,3,5,2,3,5,3,2,5,2,5,1,3,1,1,1,3,2,3,5,2,5,5,4,1,3,5,2,2,1,4,2,2,5,5,4,1,4,2,5,1,4,3,1,1,5,3,4,5,1,2,4,2,3,5,
4,2,3,4,5,1,1,1,5,1,4,5,1,3,5,3,2,4,5,4,5,3,4,4,2,1,2,1,5,5,5,4,2,4,1,5,1,5,4,1,4,3,4,2,5,3,5,5,1,2,2,1,1,3,3,5,2,5,5,2,
2,3,2,1,2,5,3,1,1,4,2,3,5,5,5,4,2,4,4,2,5,1,1,3,5,5,3,5,4,1,2,1,3,3,2,5,1,2,3,5,5,3,1,2,1,1,2,4,2,1,1,1,5,3,5,3,2,2,5,5,
1,3,3,4,3,4,2,1,2,2,2,2,2,1,5,4,2,4,2,5,1,5,2,2,4,4,3,4,3,2,1,5,3,1,4,4,1,2,3,3,3,5,1,4,4,1,1,4,5,1,2,3,1,3,1,4,2,1,2,2,
1,1,4,1,1,5,3,2,5,3,2,1,3,5,1,3,2,4,4,4,5,5,4,5,2,4,5,2,1,3,5,1,4,5,5,5,4,2,3221225477,5,2,1,2,2,2,2,5,1,2,4,2,1,5,2,5,3,5,4,3,1,
1,2,4,4,1,1,2,2,2,3,5,1,4,1,5,4,2,3,4,5,2,4,4,4,4,3,5,2,2,1,3,2,1,2,4,4,1,4,3221225476,3221225475,1,4,5,2,4,5,5,1,2,3,4,5,1,4,4,5,3,2,1,2,
1,3,5,1,5,1,4,3,1,2,3,5,4,3,3,3,1,1,2,3,5,3,3,3,5,2,4,2,4,5,3,5,1,1,2,2,1,3221225477,3221225476,3221225473,3221225474,3,3,4,5,4,1,3,4,5,1,5,3,2,3,2,4,1,3,5,
2,3,2,2,5,2,1,2,1,3,1,2,2,2,3,1,4,5,5,5,3,1,5,1,1,5,4,3,1,5,3,2,4,4,4,3,3,3221225477,3,1,4,3,3,4,1,3,1,2,5,2,2,1,3,5,4,2,1,5,5,4,
1,3,3,3,4,2,3,2,3,3,3,1,4,1,4,1,3,1,5,5,3,4,1,2,5,1,5,3,3,5,4,3221225476,3221225476,3221225473,3221225474,3221225477,3221225475,1,5,5,2,5,5,2,5,2,1,2,2,2,3,3,4,1,2,4,5,3,4,1,
5,1,1,1,1,5,5,3,4,5,2,5,3,4,3,3,1,1,1,2,3,2,1,1,2,3,3,1,5,5,4,1,5,3,5,1,3,3,2,4,5,1,4,5,2,4,1,4,5,4,2,3,1,3,3,3,3,1,1,3,
3,1,1,5,5,2,1,4,2,1,5,2,5,4,1,1,3,4,1,2,4,5,1,1,4,1,2,2,2,4,1,3,2,1,3,3,4,4,5,3,3,1,1,5,3,5,1,5,5,3,4,2,5,2,2,3,1,3,1,3,
4,4,2,2,4,5,3,1,3,5,2,1,4,2,2,3,3,3,2,2,5,3,3,3,2,4,5,2,5,1,5,1,5,2,5,5,4,5,4,4,1,5,2,1,3,5,1,3,1,1,1,2,5,3,5,5,1,4,5,4,
3,1,4,5,1,2,5,1,4,2,2,5,3,3,3,2,2,5,1,5,3,2,4,2,5,4,4,2,3,4,1,1,4,3,3,2,5,2,4,3,5,4,4,5,2,4,4,5,4,1,2,2,1,3,1,4,3,2,2,1,
2,4,3,5,4,1,5,1,3,4,3,5,5,4,3,2,2,4,1,2,2,2,3,5,2,3,4,5,2,5,1,3,2,1,2,2,4,4,1,2,1,3,3,2,2,4,5,5,2,4,4,3,1,5,3,3,3,2,1,3,
3,3,1,5,1,3,2,5,2,4,5,5,1,1,5,3,5,4,1,3,2,5,2,4,4,1,3,1,3,1,5,3,2,5,3,5,1,4,2,3,1,1,2,2,5,2,3,5,1,1,4,1,1,3,1,2,1,3,5,4,
3,4,2,5,3,3,3,2,5,2,4,2,5,2,2,5,5,5,4,4,3,4,3,3,2,2,3,3,1,4,2,2,4,4,1,1,4,3,2,1,2,4,3,3,5,2,5,3,5,5,5,4,1,3,5,5,3,4,5,4,
1,3,2,1,5,4,4,5,5,5,4,5,4,4,2,4,5,3,2,1,1,3,2,5,4,4,4,2,5,5,4,5,1,4,2,2,4,5,2,5,1,2,3,3,4,1,2,4,4,5,1,4,4,5,1,3,4,3,3,4,
3,2,2,3,2,1,3,5,4,2,2,4,5,5,1,3,4,2,1,3,2,4,3,5,3,1,2,1,1,1,1,4,3,5,2,1,5,1,1,1,5,2,1,3,1,5,2,3,5,3,4,2,5,1,1,4,2,3,3,5,
1,3,1,5,1,4,4,1,5,4,2,2,5,4,2,4,1,3,5,3,2,3,1,1,5,4,2,3,5,3,4,5,4,1,3,1,4,5,5,1,4,5,2,5,2,2,4,5,3,2,5,3,2,2,1,2,5,3,2,5,
1,3,4,3,3,1,4,3,2,1,1,1,3,5,5,3,4,4,2,5,1,4,4,5,1,4,4,4,3,4,3,3,5,4,3,5,1,4,2,3,4,2,1,1,5,2,1,5,3,1,3,4,3,5,2,2,1,3,3,1,
3,5,3,5,3,3,3,5,5,1,2,5,4,2,2,4,2,1,2,2,4,1,4,2,1,4,5,1,3,5,4,5,3,5,3,5,1,3,1,4,2,5,4,2,1,5,1,4,4,3,4,3,1,4,4,4,1,3,4,3,
5,1,1,5,4,5,3,5,2,2,5,4,4,5,4,3,4,1,3,1,3,2,4,5,4,2,4,5,1,5,5,4,3,3,4,5,3,3,5,2,1,5,1,4,3,2,4,3,5,3,1,4,4,4,3,2,2,3,1,4,
5,3,5,5,1,2,5,2,4,4,1,4,5,5,2,3,5,1,4,2,3,4,2,3,1,2,5,1,2,4,3,4,1,2,1,5,3,4,5,2,1,3,4,2,2,1,4,3,5,3,1,3,4,3,1,3,3,4,4,1,
4,5,3,4,3,3,1,2,4,5,1,2,3,3,3,5,2,4,5,3,1,2,1,4,4,4,3,3,4,1,3,2,2,4,4,2,1,3,2,2,5,3,1,4,3,4,4,5,2,5,3,5,2,5,3,3,1,1,4,4,
3,1,4,4,1,4,3,5,5,5,2,3,3,5,5,2,5,5,3,4,3,3,4,1,1,1,4,3,4,1,4,2,1,5,5,1,2,4,5,5,3,3,2,2,4,5,1,5,1,3,2,4,5,1,5,4,3,3,4,1,
1,2,4,2,3,3,2,1,4,2,1,5,1,4,4,1,4,5,1,2,3,2,2,1,2,5,5,5,4,3,2,1,1,4,3,3,2,1,3,1,5,2,5,1,2,4,2,5,5,1,4,5,1,5,1,1,2,3,3,2,
3,4,2,3,1,3,4,2,2,1,1,3,2,5,1,3,3,4,2,2,2,5,2,1,2,3,4,5,2,5,2,2,3,5,1,3,3,3,4,5,4,3,2,2,3,2,3,4,4,1,3,4,3,4,5,4,4,1,1,1,
1,5,5,3,5,5,1,4,4,4,5,1,1,4,3,1,1,1,4,5,5,2,3,3,5,3,1,1,2,5,5,4,5,1,2,4,2,4,2,3,4,3,2,2,3,1,1,4,1,5,5,3,4,2,3,1,3,3,2,5,
3,3,1,3,2,4,4,5,2,5,3,1,4,2,1,2,2,2,1,4,5,5,3,5,3,5,1,5,1,3,1,1,5,1,4,2,5,2,2,2,2,5,5,4,2,3,1,2,1,5,2,4,3,2,1,5,5,1,1,2,
3,2,3,2,4,1,4,3,3,5,2,4,2,4,2,4,5,5,2,3,4,1,3,3,2,3,1,5,3,3,4,3,1,1,2,5,4,5,2,5,2,5,1,2,3,5,5,5,3,4,2,3,4,5,4,3,2,2,1,2,
5,1,3,5,2,2,4,4,1,4,5,4,4,3,3,2,2,5,2,3,5,4,2,5,2,4,4,2,3,2,1,3,1,4,1,4,3,3,5,5,3,5,5,1,1,4,5,1,5,5,2,2,1,4,4,5,5,5,3,4,
2,1,1,5,3,3,1,3,2,5,4,4,5,3,4,4,3,5,5,5,2,4,3,5,3,5,3,3,5,1,4,3,2,3,4,2,1,1,3,2,1,1,1,1,5,1,2,5,1,1,3,2,1,3,1,2,4,2,1,3,
4,5,4,3,5,1,5,2,5,2,3,2,3,4,3,2,1,2,3,4,3,1,3,4,4,5,2,4,1,4,1,1,1,5,4,4,5,4,3,1,3,4,4,2,4,1,5,3,4,3,3,3,1,3,3,3,5,3,3,5,
3,4,2,4,2,4,4,2,5,5,2,5,1,2,3,2,3,3,1,5,5,4,1,4,3,3,3,1,2,3,2,4,2,5,2,2,4,3,2,4,2,1,2,2,1,1,2,4,2,5,2,2,4,1,3,4,3,2,3,5,
1,2,1,1,5,5,5,2,3,1,2,2,5,3,3,4,5,4,2,5,3,5,2,3,4,3,1,3,3,2,2,5,3,1,1,2,3,2,3,2,2,2,3,4,4,2,3,3,5,2,5,4,4,3,5,4,2,4,4,5
</data>
 </layer>
 <layer id="4" name="river" width="60" height="60">
  <data encoding="csv">
0,0,0,0,0,0,0,0,0,0,0,0,0,0,0,0,0,0,0,0,0,0,0,0,0,0,0,0,0,0,0,0,0,0,0,0,0,0,0,0,0,0,0,0,0,0,0,0,0,0,0,0,0,0,0,0,0,0,0,0,
0,0,0,0,0,0,0,0,0,0,0,0,0,0,0,0,0,0,0,0,0,0,0,0,0,0,0,0,0,0,0,0,0,0,0,0,0,0,0,0,0,0,0,0,0,0,0,0,0,0,0,0,0,0,0,0,0,0,0,0,
0,0,0,0,0,0,0,0,0,0,0,0,0,0,0,0,0,0,0,0,0,0,0,0,0,0,0,0,0,0,0,0,0,0,0,0,0,0,0,0,0,0,0,0,0,0,0,0,0,0,0,0,0,0,0,0,0,0,0,0,
0,0,0,0,0,0,0,0,0,0,0,0,0,0,0,0,0,0,0,0,0,0,0,0,0,0,0,0,0,0,0,0,0,0,0,0,0,0,0,0,0,0,0,0,0,0,0,0,0,0,0,0,0,0,0,0,0,0,0,0,
0,0,0,0,0,0,0,0,0,0,0,0,0,0,0,0,0,0,0,0,0,0,0,0,0,0,0,0,0,0,0,0,0,0,0,0,0,0,0,0,0,0,0,0,0,0,0,0,0,0,0,0,0,0,0,0,0,0,0,0,
0,0,0,0,0,0,0,0,0,0,0,0,0,0,0,0,0,0,0,0,0,0,0,0,0,0,0,0,0,0,0,0,0,0,0,0,0,0,0,0,0,0,0,0,0,0,0,0,0,0,0,0,0,0,0,0,0,0,0,0,
0,0,0,0,0,0,0,0,0,0,0,0,0,0,0,0,0,0,0,0,0,0,0,0,0,0,0,0,0,0,0,0,0,0,0,0,0,0,0,0,0,0,0,0,0,0,0,0,0,0,0,0,0,0,0,0,0,0,0,0,
0,0,0,0,0,0,0,0,0,0,0,0,0,0,0,0,0,0,0,0,0,0,0,0,0,0,0,0,0,0,0,0,0,0,0,0,0,0,0,0,0,0,0,0,0,0,0,0,0,0,0,0,0,0,0,0,0,0,0,0,
0,0,0,0,0,0,0,0,0,0,0,0,0,0,0,0,0,0,0,0,0,0,0,0,0,0,0,0,0,0,0,0,0,0,0,0,0,0,0,0,0,0,0,0,0,0,0,0,0,0,0,0,0,0,0,0,0,0,0,0,
0,0,0,0,0,0,0,0,0,0,0,0,0,0,0,0,0,0,0,0,0,0,0,0,0,0,0,0,0,0,0,0,0,0,0,0,0,0,0,0,0,0,0,0,0,0,0,0,0,0,0,0,0,0,0,0,0,0,0,0,
0,0,0,0,0,0,0,0,0,0,0,0,0,0,0,0,0,0,0,0,0,0,0,0,0,0,0,0,0,0,0,0,0,0,0,0,0,0,0,0,0,0,0,0,0,0,0,0,0,0,0,0,0,0,0,0,0,0,0,0,
0,0,0,0,0,0,0,0,0,0,0,0,0,0,0,0,0,0,0,0,0,0,0,0,0,0,0,0,0,0,0,0,0,0,0,0,0,0,0,0,0,0,0,0,0,0,0,0,0,0,0,0,0,0,0,0,0,0,0,0,
0,0,0,0,0,0,0,0,0,0,0,0,0,0,0,0,0,0,0,0,0,0,0,0,0,0,0,0,0,0,0,0,0,0,0,0,0,0,0,0,0,0,0,0,0,0,0,0,0,0,0,0,0,0,0,0,0,0,0,0,
0,0,0,0,0,0,0,0,0,0,0,0,0,0,0,0,0,0,0,0,0,0,0,0,0,0,0,0,0,0,0,0,0,0,0,0,0,0,0,0,0,0,0,0,0,0,0,0,0,0,0,0,0,0,0,0,0,0,0,0,
0,0,0,0,0,0,0,0,0,0,0,0,0,0,0,0,0,0,0,0,0,0,0,0,0,0,0,0,0,0,0,0,0,0,0,0,0,0,0,0,0,0,0,0,0,0,0,0,0,0,0,0,0,0,0,0,0,0,0,0,
0,0,0,0,0,0,0,0,0,0,0,0,0,0,0,0,0,0,0,0,0,0,0,0,0,0,0,0,0,0,0,0,0,0,0,0,0,0,0,0,0,0,0,0,0,0,0,0,0,0,0,0,0,0,0,0,0,0,0,0,
0,0,0,0,0,0,0,0,0,0,0,0,0,0,0,0,0,0,0,0,0,0,0,0,0,0,0,0,0,0,0,0,0,0,0,0,0,0,0,0,0,0,0,0,0,0,0,0,0,0,0,0,0,0,0,0,0,0,0,0,
0,0,0,0,0,0,0,0,0,0,0,0,0,0,0,0,0,0,0,0,0,0,0,0,0,0,0,0,0,0,0,0,0,0,0,0,0,0,0,0,0,0,0,0,0,0,0,0,0,0,0,0,0,0,0,0,0,0,0,0,
0,0,0,0,0,0,0,0,0,0,0,0,0,0,0,0,0,0,0,0,0,0,0,0,0,0,0,0,0,0,0,0,0,0,0,0,0,0,0,0,0,0,0,0,0,0,0,0,0,0,0,0,0,0,0,0,0,0,0,0,
0,0,0,0,0,0,0,0,0,0,0,0,0,0,0,0,0,0,0,0,0,0,0,0,0,0,0,0,0,0,0,0,0,0,0,0,0,0,0,0,0,0,0,0,0,0,0,0,0,0,0,0,0,0,0,0,0,0,0,0,
0,0,0,0,0,0,0,0,0,0,0,0,0,0,0,0,0,0,0,0,0,0,0,0,0,0,0,0,0,0,0,0,0,0,0,0,0,0,0,0,0,0,0,0,0,0,0,0,0,0,0,0,0,0,0,0,0,0,0,0,
0,0,0,0,0,0,0,0,0,0,0,0,0,0,0,0,0,0,0,0,0,0,0,0,0,0,0,0,0,0,0,0,0,0,0,0,0,0,0,0,0,0,0,0,0,0,0,0,0,0,0,0,0,0,0,0,0,0,0,0,
0,0,0,0,0,0,0,0,0,0,0,0,0,0,0,0,0,0,0,0,0,0,0,0,0,0,0,0,0,0,0,0,0,0,0,0,0,0,0,0,0,0,0,0,0,0,0,0,0,0,0,0,0,0,0,0,0,0,0,0,
0,0,0,0,0,0,0,0,0,0,0,0,0,0,0,0,0,0,0,0,0,0,0,0,0,0,0,0,0,0,0,0,0,0,0,0,0,0,0,0,0,0,0,0,0,0,0,0,0,0,0,0,0,0,0,0,0,0,0,0,
0,0,0,0,0,0,0,0,0,0,0,0,0,0,0,0,0,0,0,0,0,0,0,0,0,0,0,0,0,0,0,0,0,0,0,0,0,0,0,0,0,0,0,0,0,0,0,0,0,0,0,0,0,0,0,0,0,0,0,0,
0,0,0,0,0,0,0,0,0,0,0,0,0,0,0,0,0,0,0,0,0,0,0,0,0,0,0,0,0,0,0,0,0,0,0,0,0,0,0,0,0,0,0,0,0,0,0,0,0,0,0,0,0,0,0,0,0,0,0,0,
0,0,0,0,0,0,0,0,0,0,0,0,0,0,0,0,0,0,0,0,0,0,0,0,0,0,0,0,0,0,0,0,0,0,0,0,0,0,0,0,0,0,0,0,0,0,0,0,0,0,0,0,0,0,0,0,0,0,0,0,
0,0,0,0,0,0,0,0,0,0,0,0,0,0,0,0,0,0,0,0,0,0,0,0,0,0,0,0,0,0,0,0,0,0,0,0,0,0,0,0,0,0,0,0,0,0,0,0,0,0,0,0,0,0,0,0,0,0,0,0,
0,0,0,0,0,0,0,0,0,0,0,0,0,0,0,0,0,0,0,0,0,0,0,0,0,0,0,0,0,0,0,0,0,0,0,0,0,0,0,0,0,0,0,0,0,0,0,0,0,0,0,0,0,0,0,0,0,0,0,0,
0,0,0,0,0,0,0,0,0,0,0,0,0,0,0,0,0,0,0,0,0,0,0,0,0,0,0,0,0,0,0,0,0,0,0,0,0,0,0,0,0,0,0,0,0,0,0,0,0,0,0,0,0,0,0,0,0,0,0,0,
0,0,0,0,0,0,0,0,0,0,0,0,0,0,0,0,0,0,0,0,0,0,0,0,0,0,0,0,0,0,0,0,0,0,0,0,0,0,0,0,0,0,0,0,0,0,0,0,0,0,0,0,0,0,0,0,0,0,0,0,
0,0,0,0,0,0,0,0,0,0,0,0,0,0,0,0,0,0,0,0,0,0,0,0,0,0,0,0,0,0,0,0,0,0,0,0,0,0,0,0,0,0,0,0,0,0,0,0,0,0,0,0,0,0,0,0,0,0,0,0,
0,0,0,0,0,0,0,0,0,0,0,0,0,0,0,0,0,0,0,0,0,0,0,0,0,0,0,0,0,0,0,0,0,0,0,0,0,0,0,0,0,0,0,0,0,0,0,0,0,0,0,0,0,0,0,0,0,0,0,0,
0,0,0,0,0,0,0,0,0,0,0,0,0,0,0,0,0,0,0,0,0,0,0,0,0,0,0,0,0,0,0,0,0,0,0,0,0,0,0,0,0,0,0,0,0,0,0,0,0,0,0,0,0,0,0,0,0,0,0,0,
0,0,0,0,0,0,0,0,0,0,0,0,0,0,0,0,0,0,0,0,0,0,0,0,0,0,0,0,0,0,0,0,0,0,0,0,0,0,0,0,0,0,0,0,0,0,0,0,0,0,0,0,0,0,0,0,0,0,0,0,
0,0,0,0,0,0,0,0,0,0,0,0,0,0,0,0,0,0,0,0,0,0,0,0,0,0,0,0,0,0,0,0,0,0,0,0,0,0,0,0,0,0,0,0,0,0,0,0,0,0,0,0,0,0,0,0,0,0,0,0,
0,0,0,0,0,0,0,0,0,0,0,0,0,0,0,0,0,0,0,0,0,0,0,0,0,0,0,0,0,0,0,0,0,0,0,0,0,0,0,0,0,0,0,0,0,0,0,0,0,0,0,0,0,0,0,0,0,0,0,0,
0,0,0,0,0,0,0,0,0,0,0,0,0,0,0,0,0,0,0,0,0,0,0,0,0,0,0,0,0,0,0,0,0,0,0,0,0,0,0,0,0,0,0,0,0,0,0,0,0,0,0,0,0,0,0,0,0,0,0,0,
0,0,0,0,0,0,0,0,0,0,0,0,0,0,0,0,0,0,0,0,0,0,0,0,0,0,0,0,0,0,0,0,0,0,0,0,0,0,0,0,0,0,0,0,0,0,0,0,0,0,0,0,0,0,0,0,0,0,0,0,
0,0,0,0,0,0,0,0,0,0,0,0,0,0,0,0,0,0,0,0,0,0,0,0,0,0,0,0,0,0,0,0,0,0,0,0,0,0,0,0,0,0,0,0,0,0,0,0,0,0,0,0,0,0,0,0,0,0,0,0,
0,0,0,0,0,0,0,0,0,0,0,0,0,0,0,0,0,0,0,0,0,0,0,0,0,0,0,0,0,0,0,0,0,0,0,0,0,0,0,0,0,0,0,0,0,0,0,0,0,0,0,0,0,0,0,0,0,0,0,0,
7,8,7,8,8,7,7,8,8,8,7,8,8,8,7,7,7,8,7,8,8,7,7,8,8,7,8,7,7,8,7,7,8,7,8,7,8,7,7,7,7,7,7,8,7,7,7,7,7,7,7,7,7,8,7,7,8,7,8,8,
10,9,9,9,10,9,10,10,10,9,9,9,9,10,10,10,9,10,9,10,10,9,9,10,9,10,10,9,10,9,10,9,9,9,10,10,10,10,9,10,9,10,9,10,10,9,9,10,9,9,9,10,10,10,10,10,10,10,10,9,
9,10,10,10,10,10,9,9,10,9,10,9,10,9,10,10,10,10,10,9,10,10,10,10,9,9,9,9,9,9,10,9,9,10,9,9,9,9,9,9,10,9,9,9,10,10,10,10,9,9,10,9,9,9,9,9,10,10,10,10,
9,9,10,10,10,10,9,9,9,10,9,10,10,9,10,9,10,9,9,10,9,9,10,9,10,9,9,10,9,10,9,10,10,9,9,9,10,10,9,9,9,10,9,9,10,9,9,9,9,9,10,10,9,10,10,10,9,9,9,10,
3221225480,3221225479,3221225480,3221225480,3221225480,3221225479,3221225480,3221225480,3221225480,3221225479,3221225480,3221225480,3221225479,3221225479,3221225479,3221225479,3221225480,3221225480,3221225479,3221225480,3221225479,3221225480,3221225479,3221225480,3221225480,3221225480,3221225480,3221225480,3221225480,3221225480,3221225479,3221225480,3221225480,3221225479,3221225480,3221225480,3221225480,3221225479,3221225480,3221225479,3221225479,3221225480,3221225479,3221225480,3221225479,3221225479,3221225480,3221225479,3221225479,3221225480,3221225479,3221225480,3221225479,3221225480,3221225480,3221225480,3221225479,3221225479,3221225480,3221225479,
0,0,0,0,0,0,0,0,0,0,0,0,0,0,0,0,0,0,0,0,0,0,0,0,0,0,0,0,0,0,0,0,0,0,0,0,0,0,0,0,0,0,0,0,0,0,0,0,0,0,0,0,0,0,0,0,0,0,0,0,
0,0,0,0,0,0,0,0,0,0,0,0,0,0,0,0,0,0,0,0,0,0,0,0,0,0,0,0,0,0,0,0,0,0,0,0,0,0,0,0,0,0,0,0,0,0,0,0,0,0,0,0,0,0,0,0,0,0,0,0,
0,0,0,0,0,0,0,0,0,0,0,0,0,0,0,0,0,0,0,0,0,0,0,0,0,0,0,0,0,0,0,0,0,0,0,0,0,0,0,0,0,0,0,0,0,0,0,0,0,0,0,0,0,0,0,0,0,0,0,0,
0,0,0,0,0,0,0,0,0,0,0,0,0,0,0,0,0,0,0,0,0,0,0,0,0,0,0,0,0,0,0,0,0,0,0,0,0,0,0,0,0,0,0,0,0,0,0,0,0,0,0,0,0,0,0,0,0,0,0,0,
0,0,0,0,0,0,0,0,0,0,0,0,0,0,0,0,0,0,0,0,0,0,0,0,0,0,0,0,0,0,0,0,0,0,0,0,0,0,0,0,0,0,0,0,0,0,0,0,0,0,0,0,0,0,0,0,0,0,0,0,
0,0,0,0,0,0,0,0,0,0,0,0,0,0,0,0,0,0,0,0,0,0,0,0,0,0,0,0,0,0,0,0,0,0,0,0,0,0,0,0,0,0,0,0,0,0,0,0,0,0,0,0,0,0,0,0,0,0,0,0,
0,0,0,0,0,0,0,0,0,0,0,0,0,0,0,0,0,0,0,0,0,0,0,0,0,0,0,0,0,0,0,0,0,0,0,0,0,0,0,0,0,0,0,0,0,0,0,0,0,0,0,0,0,0,0,0,0,0,0,0,
0,0,0,0,0,0,0,0,0,0,0,0,0,0,0,0,0,0,0,0,0,0,0,0,0,0,0,0,0,0,0,0,0,0,0,0,0,0,0,0,0,0,0,0,0,0,0,0,0,0,0,0,0,0,0,0,0,0,0,0,
0,0,0,0,0,0,0,0,0,0,0,0,0,0,0,0,0,0,0,0,0,0,0,0,0,0,0,0,0,0,0,0,0,0,0,0,0,0,0,0,0,0,0,0,0,0,0,0,0,0,0,0,0,0,0,0,0,0,0,0,
0,0,0,0,0,0,0,0,0,0,0,0,0,0,0,0,0,0,0,0,0,0,0,0,0,0,0,0,0,0,0,0,0,0,0,0,0,0,0,0,0,0,0,0,0,0,0,0,0,0,0,0,0,0,0,0,0,0,0,0,
0,0,0,0,0,0,0,0,0,0,0,0,0,0,0,0,0,0,0,0,0,0,0,0,0,0,0,0,0,0,0,0,0,0,0,0,0,0,0,0,0,0,0,0,0,0,0,0,0,0,0,0,0,0,0,0,0,0,0,0,
0,0,0,0,0,0,0,0,0,0,0,0,0,0,0,0,0,0,0,0,0,0,0,0,0,0,0,0,0,0,0,0,0,0,0,0,0,0,0,0,0,0,0,0,0,0,0,0,0,0,0,0,0,0,0,0,0,0,0,0,
0,0,0,0,0,0,0,0,0,0,0,0,0,0,0,0,0,0,0,0,0,0,0,0,0,0,0,0,0,0,0,0,0,0,0,0,0,0,0,0,0,0,0,0,0,0,0,0,0,0,0,0,0,0,0,0,0,0,0,0,
0,0,0,0,0,0,0,0,0,0,0,0,0,0,0,0,0,0,0,0,0,0,0,0,0,0,0,0,0,0,0,0,0,0,0,0,0,0,0,0,0,0,0,0,0,0,0,0,0,0,0,0,0,0,0,0,0,0,0,0
</data>
 </layer>
 <layer id="3" name="cheese" width="60" height="60">
  <data encoding="csv">
0,0,0,0,0,0,0,0,0,0,0,0,0,0,0,0,0,0,0,0,0,0,0,0,0,0,0,0,0,0,0,0,0,0,0,0,0,0,0,0,0,0,0,0,0,0,0,0,0,0,0,0,0,0,0,0,0,0,0,0,
0,0,0,0,0,0,0,0,0,0,0,0,0,0,0,0,0,0,0,0,0,0,0,0,0,0,0,0,0,0,0,0,0,0,0,0,0,0,0,0,0,0,0,0,0,0,0,0,0,0,0,0,0,0,0,0,0,0,0,0,
0,0,0,0,0,0,0,0,0,0,0,0,0,0,0,0,0,0,0,0,0,0,0,0,0,0,0,0,0,0,0,0,0,0,0,0,0,0,0,0,0,0,0,0,0,0,0,0,0,0,0,0,0,0,0,0,0,0,0,0,
0,0,0,0,0,0,0,0,0,0,0,0,0,0,0,0,0,0,0,0,0,0,0,0,0,0,0,0,0,0,0,0,0,0,0,0,0,0,0,0,0,0,0,0,0,0,0,0,0,0,0,0,0,0,0,0,0,0,0,0,
0,0,0,0,0,0,0,0,0,0,0,0,0,0,0,0,0,0,14,12,14,14,12,3221225491,0,0,0,11,12,12,14,14,13,13,14,0,0,0,0,0,0,0,0,0,0,0,0,0,0,0,0,0,0,0,0,0,0,0,0,0,
0,0,0,0,0,0,0,0,0,0,0,0,0,0,0,0,0,2684354580,17,18,18,17,17,3221225487,5,3,3,15,17,18,16,16,16,18,17,2684354584,3221225491,1,5,11,12,12,0,0,0,0,0,0,0,0,0,0,0,0,0,0,0,0,0,0,
0,0,0,0,0,0,0,0,0,0,0,0,0,0,0,0,0,2684354582,17,3221225496,20,22,22,3221225483,0,0,0,19,3221225484,3221225486,3221225484,3221225485,3221225486,3221225497,17,17,3221225487,1,1,15,18,16,2684354573,0,0,0,0,0,0,0,12,14,14,13,12,13,0,0,0,0,
0,0,0,0,0,0,0,0,0,0,0,0,0,0,0,0,0,2684354581,17,2684354573,0,0,0,0,0,0,0,0,0,0,0,0,0,2684354593,17,3221225496,3221225483,1,1,19,3221225497,17,25,13,13,12,12,0,0,16,16,18,17,17,18,17,2684354572,0,0,0,
0,0,0,0,0,0,0,0,0,0,0,0,0,0,0,0,0,2684354581,17,2684354573,0,0,0,0,0,0,0,0,0,0,0,0,0,1610612750,16,1610612769,0,0,0,0,2684354581,16,18,16,18,18,16,2684354572,0,17,3221225496,3221225484,3221225484,3221225486,3221225497,17,2684354573,0,0,0,
0,0,0,0,0,0,0,0,0,0,0,0,0,0,0,0,0,2684354581,16,2684354573,0,0,0,0,0,0,0,0,0,0,0,0,0,1610612750,16,1610612756,0,0,0,0,0,22,22,21,20,3221225497,17,2684354572,0,16,2684354572,0,0,0,1610612750,16,2684354574,0,0,0,
0,0,0,0,0,0,0,0,0,0,0,0,0,0,0,0,0,2684354581,16,2684354574,0,0,0,0,0,0,0,0,0,0,0,0,0,1610612748,18,1610612768,0,0,0,0,0,0,0,0,0,2684354592,18,25,12,16,2684354572,0,0,0,1610612748,18,2684354573,0,0,0,
0,0,0,0,0,0,0,0,0,0,0,0,0,0,0,0,0,2684354582,17,2684354573,0,0,0,0,0,0,0,0,0,0,0,0,0,1610612748,16,1610612756,0,0,0,0,0,0,0,0,0,2684354592,16,18,18,16,2684354572,0,0,0,1610612747,1610612751,1610612755,0,0,0,
0,0,0,0,0,0,0,0,0,0,0,0,0,0,0,0,0,2684354580,18,2684354572,0,0,0,0,0,0,0,0,0,0,0,0,0,1610612750,18,1610612757,0,0,0,0,0,0,0,0,0,0,32,32,3221225497,17,2684354572,0,0,0,0,1,1,0,0,0,
0,0,0,0,0,0,0,0,0,0,0,0,0,0,0,0,0,2684354581,16,2684354574,0,0,0,0,0,0,0,0,0,0,0,0,0,1610612750,16,1610612756,0,0,0,0,0,0,0,3221225494,3221225493,3221225492,3221225493,3221225493,1610612761,16,2684354572,0,0,0,1,5,1,0,0,0,
0,0,0,0,0,0,0,0,0,0,0,0,0,0,0,0,0,2684354580,17,2684354573,0,0,0,0,0,0,0,0,0,0,0,0,0,1610612750,16,1610612758,0,0,0,0,0,0,2684354580,17,17,18,16,16,16,17,2684354572,0,0,0,0,3,0,0,0,0,
0,0,0,0,0,0,0,0,0,0,0,0,0,0,0,0,0,2684354581,17,2684354573,0,0,0,0,0,0,0,0,0,0,0,0,0,1610612750,18,1610612756,0,0,0,0,0,0,2684354581,17,3221225496,21,22,22,22,21,0,0,0,0,2684354591,2684354575,2684354583,0,0,0,
0,0,0,0,0,0,0,0,0,0,0,0,0,0,0,0,0,2684354582,16,2684354574,0,0,0,0,0,0,0,0,0,0,0,0,0,1610612748,17,1610612770,0,0,0,0,0,0,2684354582,17,1610612756,0,0,0,0,0,0,14,14,13,24,16,2684354574,0,0,0,
0,0,0,0,0,0,0,0,0,0,0,0,0,0,0,0,0,2684354580,17,2684354572,0,0,0,0,0,0,0,0,0,0,0,0,0,2684354594,17,1610612770,0,0,0,0,0,0,2684354580,18,1610612756,0,0,0,0,0,1610612761,18,17,16,17,16,2684354574,0,0,0,
0,0,0,0,0,0,0,0,0,0,0,12,12,12,12,12,12,24,17,2684354584,14,13,12,14,12,12,12,14,14,13,14,12,13,1610612761,16,2684354584,14,14,14,13,12,12,24,16,1610612757,0,0,0,0,1610612749,16,17,2684354585,3221225486,3221225486,3221225486,0,0,0,0,
0,0,0,0,0,0,0,0,0,0,1610612749,16,16,16,18,17,17,18,18,16,17,17,17,18,18,17,17,17,18,18,18,16,18,17,17,16,17,16,17,16,18,16,16,18,1610612757,0,0,0,0,1610612750,16,2684354585,0,0,0,0,0,0,0,0,
0,0,0,0,0,0,0,0,0,0,1610612749,18,3221225496,20,22,22,22,22,21,20,22,21,20,22,22,3221225497,18,3221225496,20,20,22,22,21,20,21,20,20,20,22,20,21,22,3221225497,18,1610612758,0,0,0,0,1610612748,18,25,14,0,0,0,0,0,0,0,
0,0,0,0,0,0,0,0,0,0,1610612748,17,2684354573,0,0,0,0,0,0,0,0,0,0,0,0,1610612748,18,2684354574,0,0,0,0,0,0,0,0,0,0,0,0,0,0,2684354581,18,1610612756,0,0,0,0,1610612749,17,16,16,1610612769,0,0,0,0,0,0,
0,0,0,0,0,0,0,0,0,0,1610612747,1610612751,1610612755,0,0,0,0,0,0,0,0,0,0,0,0,1610612749,18,2684354574,0,0,0,0,0,0,0,0,0,0,0,0,0,0,2684354580,18,1610612757,0,0,0,0,0,3221225485,3221225497,18,1610612768,0,0,0,0,0,0,
0,0,0,0,0,0,0,0,0,0,0,5,0,0,0,0,0,0,0,0,0,0,0,0,0,1610612750,17,2684354573,0,0,0,0,0,0,0,0,0,0,0,0,0,0,2684354580,16,1610612757,0,0,0,0,0,0,1610612762,17,1610612770,0,0,0,0,0,0,
0,0,0,0,0,0,0,0,0,0,0,5,0,0,0,0,0,0,0,0,0,0,0,0,0,1610612748,17,2684354574,0,0,0,0,0,0,0,0,0,0,0,0,0,0,2684354582,17,25,3221225492,3221225494,3221225493,3221225492,3221225494,13,24,18,25,3221225492,3221225492,3221225492,0,0,0,
0,0,0,0,0,0,0,0,0,0,0,3,0,0,0,0,0,0,0,0,0,0,0,0,0,1610612750,18,2684354574,0,0,0,0,0,0,0,0,0,0,0,0,0,0,2684354581,17,17,17,17,16,18,17,18,17,17,16,18,17,18,1610612756,0,0,
0,0,0,0,0,0,0,0,0,0,2684354579,2684354575,2684354571,0,0,0,0,0,0,0,0,0,0,0,0,1610612750,17,2684354573,0,0,0,0,0,0,0,0,0,0,0,0,0,0,2684354580,16,2684354585,20,20,20,20,20,20,20,20,20,20,1610612760,18,1610612756,0,0,
0,0,0,0,0,0,0,0,0,0,1610612749,17,2684354572,0,0,0,0,0,0,0,0,0,0,0,0,1610612750,17,2684354574,0,0,0,0,0,0,0,0,0,0,0,0,0,0,2684354582,17,1610612756,0,0,0,0,0,0,0,3,0,0,2684354592,18,1610612756,0,0,
0,0,0,0,0,0,0,0,0,0,1610612749,17,2684354584,14,12,14,13,12,14,12,14,14,14,13,12,24,17,2684354584,14,12,12,3221225493,3221225491,1,5,3,3,5,1,11,13,14,2684354580,17,25,12,13,13,12,12,13,3221225491,1,11,14,1610612761,16,1610612756,0,0,
0,0,0,0,0,0,0,0,0,0,1610612748,18,18,17,18,16,18,16,17,17,18,17,17,16,18,18,16,18,18,17,17,16,3221225487,5,1,1,3,3,3,15,17,18,16,18,16,17,17,17,17,16,18,3221225487,3,15,16,16,16,1610612756,0,0,
0,0,0,0,0,0,0,0,0,0,1610612748,16,2684354585,21,20,21,20,20,20,21,20,20,22,22,20,20,20,20,22,20,22,21,3221225483,1,1,3,5,3,1,19,22,22,21,20,21,20,20,20,22,20,21,3221225483,3,19,20,20,20,0,0,0,
0,0,0,0,0,0,0,0,0,0,1610612747,1610612751,1610612755,0,0,0,0,0,0,0,0,0,0,0,0,0,0,0,0,0,0,0,0,0,0,0,0,0,0,5,0,0,0,0,0,0,0,0,0,0,0,0,3,0,0,0,0,0,0,0,
0,0,0,0,0,0,0,0,0,0,0,0,0,0,0,0,0,0,0,0,0,0,0,0,0,0,0,0,0,0,0,0,0,0,0,0,0,0,0,0,0,0,0,0,0,0,0,0,0,0,0,0,0,0,0,0,0,0,0,0,
0,0,0,0,0,0,0,0,0,0,0,0,0,0,0,0,0,0,0,0,0,0,0,0,0,0,0,0,0,0,0,0,0,0,0,0,0,0,0,0,0,0,0,0,0,0,0,0,0,0,0,0,0,0,0,0,0,0,0,0,
0,0,0,0,0,0,0,0,0,0,0,0,0,0,0,0,0,0,0,0,0,0,0,0,0,0,0,0,0,0,0,0,0,0,0,0,0,0,0,0,0,0,0,0,0,0,0,0,0,0,0,0,0,0,0,0,0,0,0,0,
0,0,0,0,0,0,0,0,0,0,0,0,0,0,0,0,0,0,0,0,0,0,0,0,0,0,0,0,0,0,0,0,0,0,0,0,0,0,0,0,0,0,0,0,0,0,0,0,0,0,0,0,0,0,0,0,0,0,0,0,
0,0,0,0,0,0,0,0,0,0,0,0,0,0,0,0,0,0,0,0,0,0,0,0,0,0,0,0,0,0,0,0,0,0,0,0,0,0,0,0,0,0,0,0,0,0,0,0,0,0,0,0,0,0,0,0,0,0,0,0,
0,0,0,0,0,0,0,0,0,0,0,0,0,0,0,0,0,0,0,0,0,0,0,0,0,0,0,0,0,0,0,0,0,0,0,0,0,0,0,0,0,0,0,0,0,0,0,0,0,0,0,0,0,0,0,0,0,0,0,0,
0,0,0,0,0,0,0,0,0,0,0,0,0,0,0,0,0,0,0,0,0,0,0,0,0,0,0,0,0,0,0,0,0,0,0,0,0,0,0,0,0,0,0,0,0,0,0,0,0,0,0,0,0,0,0,0,0,0,0,0,
0,0,0,0,0,0,0,0,0,0,0,0,0,0,0,0,0,0,0,0,0,0,0,0,0,0,0,0,0,0,0,0,0,0,0,0,0,0,0,0,0,0,0,0,0,0,0,0,0,0,0,0,0,0,0,0,0,0,0,0,
0,0,0,0,0,0,0,0,0,0,0,0,0,0,0,0,0,0,0,0,0,0,0,0,0,0,0,0,0,0,0,0,0,0,0,0,0,0,0,0,0,0,0,0,0,0,0,0,0,0,0,0,0,0,0,0,0,0,0,0,
0,0,0,0,0,0,0,0,0,0,0,0,0,0,0,0,0,0,0,0,0,0,0,0,0,0,0,0,0,0,0,0,0,0,0,0,0,0,0,0,0,0,0,0,0,0,0,0,0,0,0,0,0,0,0,0,0,0,0,0,
0,0,0,0,0,0,0,0,0,0,0,0,0,0,0,0,0,0,0,0,0,0,0,0,0,0,0,0,0,0,0,0,0,0,0,0,0,0,0,0,0,0,0,0,0,0,0,0,0,0,0,0,0,0,0,0,0,0,0,0,
0,0,0,0,0,0,0,0,0,0,0,0,0,0,0,0,0,0,0,0,0,0,0,0,0,0,0,0,0,0,0,0,0,0,0,0,0,0,0,0,0,0,0,0,0,0,0,0,0,0,0,0,0,0,0,0,0,0,0,0,
0,0,0,0,0,0,0,0,0,0,0,0,0,0,0,0,0,0,0,0,0,0,0,0,0,0,0,0,0,0,0,0,0,0,0,0,0,0,0,0,0,0,0,0,0,0,0,0,0,0,0,0,0,0,0,0,0,0,0,0,
0,0,0,0,0,0,0,0,0,0,0,0,0,0,0,0,0,0,0,0,0,0,0,0,0,0,0,0,0,0,0,0,0,0,0,0,0,0,0,0,0,0,0,0,0,0,0,0,0,0,0,0,0,0,0,0,0,0,0,0,
0,0,0,0,0,0,0,0,0,0,0,0,0,0,0,0,0,0,0,0,0,0,0,0,0,0,0,0,0,0,0,0,0,0,0,0,0,0,0,0,0,0,0,0,0,0,0,0,0,0,0,0,0,0,0,0,0,0,0,0,
0,0,0,0,0,0,0,0,0,0,0,0,0,0,0,0,0,0,0,0,0,0,0,0,0,0,0,0,0,0,0,0,0,0,0,0,0,0,0,0,0,0,0,0,0,0,0,0,0,0,0,0,0,0,0,0,0,0,0,0,
0,0,0,0,0,0,0,0,0,0,0,0,0,0,0,0,0,0,0,0,0,0,0,0,0,0,0,0,0,0,0,0,0,0,0,0,0,0,0,0,0,0,0,0,0,0,0,0,0,0,0,0,0,0,0,0,0,0,0,0,
0,0,0,0,0,0,0,0,0,0,0,0,0,0,0,0,0,0,0,0,0,0,0,0,0,0,0,0,0,0,0,0,0,0,0,0,0,0,0,0,0,0,0,0,0,0,0,0,0,0,0,0,0,0,0,0,0,0,0,0,
0,0,0,0,0,0,0,0,0,0,0,0,0,0,0,0,0,0,0,0,0,0,0,0,0,0,0,0,0,0,0,0,0,0,0,0,0,0,0,0,0,0,0,0,0,0,0,0,0,0,0,0,0,0,0,0,0,0,0,0,
0,0,0,0,0,0,0,0,0,0,0,0,0,0,0,0,0,0,0,0,0,0,0,0,0,0,0,0,0,0,0,0,0,0,0,0,0,0,0,0,0,0,0,0,0,0,0,0,0,0,0,0,0,0,0,0,0,0,0,0,
0,0,0,0,0,0,0,0,0,0,0,0,0,0,0,0,0,0,0,0,0,0,0,0,0,0,0,0,0,0,0,0,0,0,0,0,0,0,0,0,0,0,0,0,0,0,0,0,0,0,0,0,0,0,0,0,0,0,0,0,
0,0,0,0,0,0,0,0,0,0,0,0,0,0,0,0,0,0,0,0,0,0,0,0,0,0,0,0,0,0,0,0,0,0,0,0,0,0,0,0,0,0,0,0,0,0,0,0,0,0,0,0,0,0,0,0,0,0,0,0,
0,0,0,0,0,0,0,0,0,0,0,0,0,0,0,0,0,0,0,0,0,0,0,0,0,0,0,0,0,0,0,0,0,0,0,0,0,0,0,0,0,0,0,0,0,0,0,0,0,0,0,0,0,0,0,0,0,0,0,0,
0,0,0,0,0,0,0,0,0,0,0,0,0,0,0,0,0,0,0,0,0,0,0,0,0,0,0,0,0,0,0,0,0,0,0,0,0,0,0,0,0,0,0,0,0,0,0,0,0,0,0,0,0,0,0,0,0,0,0,0,
0,0,0,0,0,0,0,0,0,0,0,0,0,0,0,0,0,0,0,0,0,0,0,0,0,0,0,0,0,0,0,0,0,0,0,0,0,0,0,0,0,0,0,0,0,0,0,0,0,0,0,0,0,0,0,0,0,0,0,0,
0,0,0,0,0,0,0,0,0,0,0,0,0,0,0,0,0,0,0,0,0,0,0,0,0,0,0,0,0,0,0,0,0,0,0,0,0,0,0,0,0,0,0,0,0,0,0,0,0,0,0,0,0,0,0,0,0,0,0,0,
0,0,0,0,0,0,0,0,0,0,0,0,0,0,0,0,0,0,0,0,0,0,0,0,0,0,0,0,0,0,0,0,0,0,0,0,0,0,0,0,0,0,0,0,0,0,0,0,0,0,0,0,0,0,0,0,0,0,0,0,
0,0,0,0,0,0,0,0,0,0,0,0,0,0,0,0,0,0,0,0,0,0,0,0,0,0,0,0,0,0,0,0,0,0,0,0,0,0,0,0,0,0,0,0,0,0,0,0,0,0,0,0,0,0,0,0,0,0,0,0
</data>
 </layer>
</map>
