<?xml version="1.0" encoding="UTF-8"?>
<map version="1.10" tiledversion="1.11.2" orientation="orthogonal" renderorder="right-down" width="30" height="20" tilewidth="32" tileheight="32" infinite="0" nextlayerid="4" nextobjectid="1">
 <editorsettings>
  <export target="teto_map.lua" format="lua"/>
 </editorsettings>
 <tileset firstgid="1" name="TetoTileSet" tilewidth="32" tileheight="32" tilecount="20" columns="4">
  <image source="tileSet.png" width="128" height="160"/>
 </tileset>
 <layer id="2" name="Tile Layer 1" width="30" height="20">
  <data encoding="csv">
1,1,1,1,1,1,1,1,1,1,1,1,1,4,4,4,4,1,1,1,1,1,1,1,1,1,1,1,1,1,
1,1,1,1,1,1,1,1,1,1,1,1,1,4,4,4,4,1,1,1,1,1,1,1,1,1,1,1,1,1,
1,1,1,1,1,1,1,1,1,1,1,1,1,4,4,4,4,1,1,1,1,1,1,1,1,1,1,1,1,1,
1,1,1,1,1,1,1,1,1,1,1,1,1,4,4,4,4,1,1,1,1,1,1,1,1,1,1,1,1,1,
1,1,1,1,1,1,1,1,1,1,1,1,1,4,4,4,4,1,1,1,1,1,1,1,1,1,1,1,1,1,
1,1,1,1,1,1,1,1,1,1,1,1,1,4,4,4,4,1,1,1,1,1,1,1,1,1,1,1,1,1,
1,1,1,1,1,1,1,1,1,1,1,1,1,4,4,4,4,1,1,1,1,1,1,1,1,1,1,1,1,1,
1,1,1,1,1,1,1,1,1,1,1,1,1,4,4,4,4,1,1,1,1,1,1,1,1,1,1,1,1,1,
17,17,17,17,17,17,17,17,17,17,17,17,17,4,4,4,4,17,17,17,17,17,17,17,17,17,17,17,17,17,
17,17,17,17,17,17,17,17,17,17,17,17,17,4,4,4,4,17,17,17,17,17,17,17,17,17,17,17,17,17,
17,17,17,17,17,17,17,17,17,17,17,17,17,4,4,4,4,17,17,17,17,17,17,17,17,17,17,17,17,17,
17,17,17,17,17,17,17,17,17,17,17,17,17,4,4,4,4,17,17,17,17,17,17,17,17,17,17,17,17,17,
1,1,1,1,1,1,1,1,1,1,1,1,1,4,4,4,4,1,1,1,1,1,1,1,1,1,1,1,1,1,
1,1,1,1,1,1,1,1,1,1,1,1,1,4,4,4,4,1,1,1,1,1,1,1,1,1,1,1,1,1,
1,1,1,1,1,1,1,1,1,1,1,1,1,4,4,4,4,1,1,1,1,1,1,1,1,1,1,1,1,1,
1,1,1,1,1,1,1,1,1,1,1,1,1,4,4,4,4,1,1,1,1,1,1,1,1,1,1,1,1,1,
1,1,1,1,1,1,1,1,1,1,1,1,1,4,4,4,4,1,1,1,1,1,1,1,1,1,1,1,1,1,
1,1,1,1,1,1,1,1,1,1,1,1,1,4,4,4,4,1,1,1,1,1,1,1,1,1,1,1,1,1,
1,1,1,1,1,1,1,1,1,1,1,1,1,4,4,4,4,1,1,1,1,1,1,1,1,1,1,1,1,1,
1,1,1,1,1,1,1,1,1,1,1,1,1,4,4,4,4,1,1,1,1,1,1,1,1,1,1,1,1,1
</data>
 </layer>
 <layer id="3" name="Trees" width="30" height="20">
  <data encoding="csv">
0,0,0,0,0,0,0,0,0,0,0,0,0,0,0,0,0,0,0,0,0,0,0,0,0,0,0,0,0,0,
0,0,2,0,0,0,0,0,0,0,0,0,0,0,0,0,0,0,0,3,3,3,3,0,0,0,0,0,0,0,
0,0,2,0,0,0,2,0,0,2,2,0,0,0,0,0,0,0,3,3,3,0,3,3,0,0,3,3,3,0,
0,0,2,2,2,2,2,0,2,2,0,0,0,0,0,0,0,0,0,3,3,3,3,3,3,3,3,3,0,0,
0,0,0,2,2,0,2,2,2,0,0,0,0,0,0,0,0,0,0,3,3,3,3,0,0,0,0,3,3,0,
0,0,0,0,0,0,2,0,0,0,2,2,0,0,0,0,0,0,0,3,0,0,3,3,0,0,0,0,3,0,
15,0,2,0,15,0,2,0,15,0,2,0,15,0,0,0,0,16,0,3,0,16,0,3,0,16,0,3,3,16,
13,0,2,0,13,0,0,0,13,0,2,0,13,0,0,0,0,14,0,0,0,14,0,0,3,14,0,3,0,14,
0,0,0,0,0,0,0,0,0,0,0,0,0,0,0,0,0,0,0,0,0,0,0,0,0,0,0,0,0,0,
0,0,0,0,0,0,0,0,0,0,0,0,0,0,0,0,0,0,0,0,0,0,0,0,0,0,0,0,0,0,
0,0,0,0,0,0,0,0,0,0,0,0,0,0,0,0,0,0,0,0,0,0,0,0,0,0,0,0,0,0,
15,0,0,0,15,0,0,0,15,0,0,0,15,0,0,0,0,16,0,0,0,16,0,0,0,16,0,0,0,16,
13,0,0,0,13,0,0,0,13,0,0,0,13,0,0,0,0,14,0,0,0,14,0,3,0,14,0,0,0,14,
0,0,0,0,0,0,0,0,0,0,0,0,0,0,0,0,0,0,0,0,3,0,0,3,0,0,0,0,0,0,
0,0,2,2,2,0,0,0,0,0,2,0,0,0,0,0,0,0,0,3,3,3,0,0,0,0,0,0,0,0,
0,0,2,0,2,2,2,2,0,2,2,0,0,0,0,0,0,0,0,3,0,3,3,3,3,3,3,3,0,0,
0,0,2,2,0,2,0,0,0,2,0,0,0,0,0,0,0,0,0,3,3,3,3,3,3,3,3,3,3,0,
0,0,0,0,0,2,2,0,0,2,0,0,0,0,0,0,0,0,0,3,3,3,0,0,0,0,0,3,3,0,
0,0,0,0,0,0,2,0,2,2,0,0,0,0,0,0,0,0,0,3,3,3,3,3,3,3,3,3,3,0,
0,0,0,0,0,0,2,0,2,0,0,0,0,0,0,0,0,0,0,0,0,0,0,0,0,0,3,3,0,0
</data>
 </layer>
</map>
